X:751
T:Lord MacDonald of The Isles
C:Joe Buchanan's Scottish Tome - Page 295.0
I:295 0
Z:Carl Allison
R:Slow Air
L:1/8
M:6/8
K:A=g
g/f/ | "A"eAA "D"fed | "A"eAA "E a"a2 f | "A"eAA "E a/D"fed | "G"BGG "D g"Ggf |
"A"eAA "D"fed | "A"eAA "E a"aef | "G"gag "D g"f2 e | "G"dBG "G"G2 :|
B | "A"A2 "E a"a aea | "A"aea "E a"aec | "A"A2 a "E a"aef | "G"gGd "D g"BAG |
"A"A2 "E a"a aea | "A"aea "E a"aef | "G"gag "D g"f2 e | "G"dBG"G" G2 :|
g/f/ | "A"eAA "D"fAA | "A"aAA "E a"eAA | "A"efg "D7"fed | "G"BGG "D g"Ggf |
"A"eAA "G"BAG | "A"Aag "E a"e2 f | "G"gag "D g"f2 e | "G"dBG "G"G2 :|
B | "A"A2 "E a"a aec | "A"e "E a"fg aec | "A"A2 a "E a"aef | "G"g2 G "D g"BAG |
"A"Aaa "E a"ged | "A"eag "E a"e2 f | "G"gag "D g"f2 e | "G"dBG "G"G2 :|
